X:148
T: BLAKOHL SEIN DIE BESTEN PFLANZEN
N: E1241
O: Europa, Mitteleuropa, Deutschland, Ruhla
R: Ansinge -, Brauchtums - Lied, Kirchen - Fest, Sommer - Tags - Lied
M: 2/4
L: 1/8
K: C
 | C2G,2 | C2G,2
CB,CD | E2Dz
EDCB, | A,B,C2
DCB,A, | A,2G,z
D2B,A, | G,2z2
DCB,A, | G,2z2
DDDD | E2D
D | DDDD | E2D2
C2G,2 | C2G,2
CB,CD | E2Dz
EDCB, | A,B,C2
DCB,A, | A,2G,z

